packages/ffe-icons/icons/open/400/sm/format_align_center.svg

<svg xmlns="http://www.w3.org/2000/svg" height="20" viewBox="0 -960 960 960" width="20"><path d="M180-144q-15.3 0-25.65-10.289-10.35-10.29-10.35-25.5Q144-195 154.35-205.5 164.7-216 180-216h600q15.3 0 25.65 10.289 10.35 10.29 10.35 25.5Q816-165 805.65-154.5 795.3-144 780-144H180Zm144-150q-15.3 0-25.65-10.289-10.35-10.29-10.35-25.5Q288-345 298.35-355.5 308.7-366 324-366h312q15.3 0 25.65 10.289 10.35 10.29 10.35 25.5Q672-315 661.65-304.5 651.3-294 636-294H324ZM180-444q-15.3 0-25.65-10.289-10.35-10.29-10.35-25.5Q144-495 154.35-505.5 164.7-516 180-516h600q15.3 0 25.65 10.289 10.35 10.29 10.35 25.5Q816-465 805.65-454.5 795.3-444 780-444H180Zm144-150q-15.3 0-25.65-10.289-10.35-10.29-10.35-25.5Q288-645 298.35-655.5 308.7-666 324-666h312q15.3 0 25.65 10.289 10.35 10.29 10.35 25.5Q672-615 661.65-604.5 651.3-594 636-594H324ZM180-744q-15.3 0-25.65-10.289-10.35-10.29-10.35-25.5Q144-795 154.35-805.5 164.7-816 180-816h600q15.3 0 25.65 10.289 10.35 10.29 10.35 25.5Q816-765 805.65-754.5 795.3-744 780-744H180Z"/></svg>

<svg xmlns="http://www.w3.org/2000/svg" height="20" viewBox="0 -960 960 960" width="20"><path d="M180-144q-15.3 0-25.65-10.29Q144-164.58 144-179.79t10.35-25.71Q164.7-216 180-216h600q15.3 0 25.65 10.29Q816-195.42 816-180.21t-10.35 25.71Q795.3-144 780-144H180Zm144-150q-15.3 0-25.65-10.29Q288-314.58 288-329.79t10.35-25.71Q308.7-366 324-366h312q15.3 0 25.65 10.29Q672-345.42 672-330.21t-10.35 25.71Q651.3-294 636-294H324ZM180-444q-15.3 0-25.65-10.29Q144-464.58 144-479.79t10.35-25.71Q164.7-516 180-516h600q15.3 0 25.65 10.29Q816-495.42 816-480.21t-10.35 25.71Q795.3-444 780-444H180Zm144-150q-15.3 0-25.65-10.29Q288-614.58 288-629.79t10.35-25.71Q308.7-666 324-666h312q15.3 0 25.65 10.29Q672-645.42 672-630.21t-10.35 25.71Q651.3-594 636-594H324ZM180-744q-15.3 0-25.65-10.29Q144-764.58 144-779.79t10.35-25.71Q164.7-816 180-816h600q15.3 0 25.65 10.29Q816-795.42 816-780.21t-10.35 25.71Q795.3-744 780-744H180Z"/></svg>
